svg/icon/magic.svg

<?xml version="1.0" encoding="UTF-8"?>
<svg xmlns="http://www.w3.org/2000/svg" xmlns:xlink="http://www.w3.org/1999/xlink" width="32px" height="32px" viewBox="0 0 32 32" version="1.1">
<g id="surface1">
<path style=" stroke:none;fill-rule:nonzero;fill:rgb(0%,0%,0%);fill-opacity:1;" d="M 13.667969 0.199219 C 7.535156 1.367188 3 5.199219 0.964844 10.867188 C -0.0351562 13.632812 -0.0351562 18.398438 0.964844 21.132812 C 3.367188 27.765625 9 31.765625 16 31.800781 C 24.898438 31.832031 31.667969 25.132812 31.765625 16.167969 C 31.867188 9.132812 27.765625 3.265625 21.199219 1 C 19.300781 0.367188 15.199219 -0.0664062 13.667969 0.199219 Z M 19.933594 9.566406 C 20.332031 11.5 20.898438 13.398438 21.234375 13.734375 C 21.535156 14.066406 22.632812 14.667969 23.734375 15.035156 C 24.800781 15.433594 25.667969 15.867188 25.667969 16.035156 C 25.667969 16.167969 24.765625 16.632812 23.699219 17.035156 C 22.601562 17.433594 21.464844 18 21.167969 18.332031 C 20.898438 18.632812 20.332031 20.5 19.933594 22.433594 C 19.535156 24.566406 19.066406 26 18.832031 26 C 18.601562 26 18.199219 24.667969 17.832031 22.601562 C 17.066406 18.566406 16.5 17.734375 13.867188 16.898438 C 12.832031 16.566406 12 16.167969 12 16.035156 C 12 15.867188 12.867188 15.433594 13.933594 15.035156 C 15.035156 14.667969 16.167969 14.035156 16.5 13.667969 C 16.832031 13.300781 17.367188 11.667969 17.699219 9.933594 C 18.765625 4.765625 19 4.734375 19.933594 9.566406 Z M 12.632812 8.066406 C 12.800781 8.832031 13.167969 9.300781 13.832031 9.667969 L 14.832031 10.132812 L 13.933594 10.464844 C 13.398438 10.632812 12.933594 11.035156 12.867188 11.300781 C 12.800781 11.601562 12.632812 12.265625 12.5 12.832031 C 12.265625 13.734375 12.234375 13.765625 12 13.167969 C 11.832031 12.800781 11.632812 12.132812 11.535156 11.667969 C 11.433594 11.132812 11 10.667969 10.433594 10.464844 L 9.5 10.101562 L 10.433594 9.734375 C 11.367188 9.332031 11.464844 9.199219 11.832031 7.535156 C 12.066406 6.398438 12.332031 6.566406 12.632812 8.066406 Z M 9.765625 18.066406 C 10.101562 19.566406 10.332031 19.898438 11.265625 20.300781 C 12.601562 20.898438 12.632812 21.234375 11.332031 21.5 C 10.535156 21.667969 10.265625 21.964844 9.964844 23.101562 C 9.765625 23.867188 9.464844 24.800781 9.332031 25.167969 C 9.101562 25.765625 9.066406 25.734375 8.832031 24.832031 C 8.199219 22.132812 7.964844 21.699219 6.964844 21.5 C 5.734375 21.234375 5.734375 20.898438 7.066406 20.300781 C 7.800781 19.964844 8.199219 19.535156 8.367188 18.832031 C 8.5 18.265625 8.699219 17.398438 8.800781 16.867188 C 9.101562 15.632812 9.300781 15.898438 9.765625 18.066406 Z M 9.765625 18.066406 "/>
</g>
</svg>

<svg xmlns="http://www.w3.org/2000/svg" width="32" height="32" viewBox="0 0 32 32"><path d="M13.668.2C7.535 1.366 3 5.2.965 10.866c-1 2.766-1 7.531 0 10.266C3.367 27.766 9 31.766 16 31.8c8.898.031 15.668-6.668 15.766-15.633.101-7.035-4-12.902-10.567-15.168-1.898-.633-6-1.066-7.531-.8m6.266 9.366c.398 1.934.964 3.832 1.3 4.168.301.332 1.399.934 2.5 1.301 1.067.399 1.934.832 1.934 1 0 .133-.902.598-1.969 1-1.097.399-2.234.965-2.531 1.297-.27.3-.836 2.168-1.234 4.102-.399 2.132-.868 3.566-1.102 3.566-.23 0-.633-1.332-1-3.398-.766-4.036-1.332-4.868-3.965-5.704-1.035-.332-1.867-.73-1.867-.863 0-.168.867-.601 1.934-1 1.101-.367 2.234-1 2.566-1.367s.867-2 1.2-3.734c1.066-5.168 1.3-5.2 2.234-.368m-7.301-1.5c.168.766.535 1.235 1.199 1.602l1 .465-.898.332c-.536.168-1 .57-1.067.836-.066.3-.234.965-.367 1.531-.234.902-.266.934-.5.336-.168-.367-.367-1.035-.465-1.5-.101-.535-.535-1-1.101-1.203l-.934-.363.934-.368c.933-.402 1.03-.535 1.398-2.199.234-1.137.5-.969.8.531m-2.867 10c.336 1.5.566 1.832 1.5 2.235 1.336.597 1.367.933.066 1.199-.797.168-1.066.465-1.367 1.602-.2.765-.5 1.699-.633 2.066-.23.598-.266.566-.5-.336-.633-2.7-.867-3.133-1.867-3.332-1.23-.266-1.23-.602.101-1.2.735-.335 1.133-.765 1.301-1.468a59 59 0 0 0 .434-1.965c.3-1.234.5-.969.965 1.2m0 0" style="stroke:none;fill-rule:nonzero;fill:#000;fill-opacity:1"/></svg>
